build/img/sprite/logo_black.svg

<svg width="77" height="18" viewBox="0 0 77 18" fill="none" xmlns="http://www.w3.org/2000/svg">
<path fill-rule="evenodd" clip-rule="evenodd" d="M60.649 3.02319H63.5488V1.78923H60.649C60.0937 1.78923 59.8469 2.09772 59.8469 2.40621C59.8469 2.7764 60.0937 3.02319 60.649 3.02319ZM63.5488 6.72507V4.62734H62.3765L60.0937 6.72507H57.0705H57.0088H54.2941L53.7388 5.67619H49.9753L49.4817 6.72507H46.9521L50.2221 0.123384H53.6154L57.0507 6.68725L59.5384 4.44224C57.9343 4.25714 57.2556 3.39338 57.2556 2.40621V2.28281C57.2556 1.17225 57.996 0.123384 60.2788 0.123384H66.0784V6.72507H63.5488ZM50.7773 4.01036H52.9985L51.8879 1.72753L50.7773 4.01036ZM43.6821 6.72507H41.1525V0.123384H48.1243V1.85094H43.6821V6.72507ZM35.4146 5.05922C37.3889 5.05922 37.8208 4.19544 37.8208 3.45507V3.33168C37.8208 2.65301 37.3889 1.78923 35.4146 1.78923C33.4402 1.78923 33.0084 2.65301 33.0084 3.33168V3.45507C33.0084 4.13374 33.4402 5.05922 35.4146 5.05922ZM30.417 3.26998C30.417 2.03602 30.9723 0 35.2295 0H35.5997C39.8568 0 40.4121 2.03602 40.4121 3.26998V3.51677C40.4121 4.75073 39.8568 6.84845 35.5997 6.84845H35.2295C30.9723 6.84845 30.417 4.75073 30.417 3.51677V3.26998ZM26.4684 1.78923H23.8154V3.02319H26.4684C27.0854 3.02319 27.3321 2.7764 27.3321 2.40621C27.3321 2.03603 27.0854 1.78923 26.4684 1.78923ZM29.9235 2.46792C29.9235 3.70187 29.1831 4.68902 26.7769 4.68902H23.8154V6.78677H21.2858V0.185086H26.7769C29.2448 0.185086 29.9235 1.11055 29.9235 2.34451V2.46792ZM15.5479 5.05922C17.5222 5.05922 17.9541 4.19544 17.9541 3.45507V3.33168C17.9541 2.65301 17.5222 1.78923 15.5479 1.78923C13.5735 1.78923 13.1416 2.65301 13.1416 3.33168V3.45507C13.1416 4.13374 13.5735 5.05922 15.5479 5.05922ZM10.4886 3.26998C10.4886 2.03602 11.0439 0 15.3011 0H15.6713C19.9284 0 20.4837 2.03602 20.4837 3.26998V3.51677C20.4837 4.75073 19.9284 6.84845 15.6713 6.84845H15.3011C11.0439 6.84845 10.4886 4.75073 10.4886 3.51677V3.26998ZM3.57847 1.91262C3.57847 3.20828 3.51679 4.44223 3.2083 4.99751H6.47828V1.91262H3.57847ZM0 7.89732V4.99751H0.863766C1.23395 4.25714 1.29566 3.02319 1.29566 0.123384H9.00789V4.99751H10.0567V7.89732H7.71223V6.72507H2.34451V7.89732H0ZM71.6325 12.6485H74.4706H74.5323V11.4145H71.6325C71.0772 11.4145 70.8304 11.723 70.8304 12.0315C70.8304 12.4017 71.0772 12.6485 71.6325 12.6485ZM74.4706 16.2886V14.2526H73.2983L71.0155 16.3503H67.9306L70.4602 14.0675C68.8561 13.8824 68.1774 13.0186 68.1774 12.0315V11.9081C68.1774 10.7975 68.9178 9.74865 71.2006 9.74865H77.0002V16.2886H74.4706ZM67.3753 16.3503H64.8457V12.2166L60.7119 16.3503H58.1823V9.74865H60.7119V13.8824L64.8457 9.74865H67.3753V16.3503ZM55.2208 16.3503H47.632V9.74865H50.1616V14.6228H53.9869V9.74865H56.5165V14.6228H57.5653V17.5226H55.2208V16.3503ZM47.2618 16.3503H43.9918L40.7218 13.3888V16.3503H38.1922V9.74865H40.7218V12.34L43.9918 9.74865H47.1384L43.3132 12.7718L47.2618 16.3503ZM37.822 16.3503H35.0456L34.4903 15.3015H30.7268L30.2332 16.3503H27.7036L30.9736 9.74865H34.367L37.822 16.3503ZM31.5289 13.6356H33.75L32.6394 11.3528L31.5289 13.6356ZM21.1636 11.4762C21.1636 12.7718 21.1019 14.0058 20.7934 14.5611H24.0634V11.4762H21.1636ZM17.5851 17.4609V14.6228H18.4489C18.8191 13.8824 18.8808 12.6484 18.8808 9.74865H26.593V14.5611H27.6419V17.4609H25.2974V16.2886H19.9296V17.4609H17.5851ZM9.68781 16.3503V9.74865H17.0299V11.3528H12.2174V12.1549H16.9682V13.759H12.2174V14.6845H17.0916V16.3503H9.68781ZM5.55404 11.3528H2.90104V12.5868H5.55404C6.17102 12.5868 6.41781 12.34 6.41781 11.9698C6.41781 11.5996 6.17102 11.3528 5.55404 11.3528ZM9.00913 12.0315C9.00913 13.2654 8.26875 14.2526 5.86253 14.2526H2.90104V16.3503H0.371425V9.74865H5.86253C8.33045 9.74865 9.00913 10.6741 9.00913 11.9081V12.0315Z" fill="black"/>
</svg>

<svg width="77" height="18" viewBox="0 0 77 18" fill="none" xmlns="http://www.w3.org/2000/svg"><path fill-rule="evenodd" clip-rule="evenodd" d="M60.649 3.023h2.9V1.79h-2.9c-.555 0-.802.309-.802.617 0 .37.247.617.802.617zm2.9 3.702V4.627h-1.172l-2.283 2.098h-5.8l-.555-1.049h-3.764l-.493 1.05h-2.53l3.27-6.603h3.393l3.436 6.564 2.487-2.245c-1.604-.185-2.282-1.049-2.282-2.036v-.123c0-1.11.74-2.16 3.023-2.16h5.8v6.602h-2.53zM50.777 4.01h2.221l-1.11-2.282-1.11 2.282zm-7.095 2.715h-2.53V.123h6.972v1.728h-4.442v4.874zM35.415 5.06c1.974 0 2.406-.864 2.406-1.604v-.123c0-.679-.432-1.543-2.406-1.543-1.975 0-2.407.864-2.407 1.543v.123c0 .679.432 1.604 2.407 1.604zm-4.998-1.79c0-1.234.555-3.27 4.813-3.27h.37c4.257 0 4.812 2.036 4.812 3.27v.247c0 1.234-.555 3.331-4.812 3.331h-.37c-4.258 0-4.813-2.097-4.813-3.331V3.27zm-3.949-1.48h-2.653v1.233h2.653c.617 0 .864-.247.864-.617s-.247-.617-.864-.617zm3.456.678c0 1.234-.74 2.221-3.147 2.221h-2.962v2.098h-2.53V.185h5.492c2.468 0 3.146.926 3.146 2.16v.123zM15.548 5.059c1.974 0 2.406-.864 2.406-1.604v-.123c0-.679-.432-1.543-2.406-1.543-1.975 0-2.406.864-2.406 1.543v.123c0 .679.431 1.604 2.406 1.604zm-5.06-1.789c0-1.234.556-3.27 4.813-3.27h.37c4.257 0 4.813 2.036 4.813 3.27v.247c0 1.234-.556 3.331-4.813 3.331h-.37c-4.257 0-4.812-2.097-4.812-3.331V3.27zm-6.91-1.357c0 1.295-.061 2.53-.37 3.085h3.27V1.913h-2.9zM0 7.897v-2.9h.864c.37-.74.432-1.974.432-4.874h7.712v4.875h1.049v2.9H7.712V6.724H2.345v1.172H0zm71.632 4.752h2.9v-1.234h-2.9c-.555 0-.802.308-.802.617 0 .37.247.617.802.617zm2.839 3.64v-2.036h-1.173l-2.282 2.097H67.93l2.53-2.283c-1.605-.185-2.284-1.048-2.284-2.036v-.123c0-1.11.74-2.16 3.024-2.16H77v6.54h-2.53zm-7.096.061h-2.53v-4.133l-4.133 4.133h-2.53v-6.6h2.53v4.133l4.134-4.133h2.53v6.601zm-12.154 0h-7.589v-6.6h2.53v4.874h3.825V9.749h2.53v4.874h1.048v2.9h-2.344V16.35zm-7.96 0h-3.27l-3.27-2.961v2.961h-2.529v-6.6h2.53v2.591l3.27-2.591h3.146l-3.825 3.023 3.949 3.578zm-9.439 0h-2.776l-.556-1.049h-3.763l-.494 1.05h-2.53l3.27-6.602h3.394l3.455 6.601zm-6.293-2.714h2.221l-1.11-2.283-1.111 2.283zm-10.365-2.16c0 1.296-.062 2.53-.37 3.085h3.27v-3.085h-2.9zm-3.579 5.985v-2.838h.864c.37-.74.432-1.975.432-4.874h7.712v4.812h1.049v2.9h-2.345v-1.172H19.93v1.172h-2.345zm-7.897-1.11V9.748h7.342v1.604h-4.813v.802h4.751v1.604h-4.75v.925h4.874v1.666H9.688zm-4.134-4.998H2.901v1.234h2.653c.617 0 .864-.247.864-.617s-.247-.617-.864-.617zm3.455.678c0 1.234-.74 2.222-3.146 2.222H2.9v2.097H.371v-6.6h5.492c2.467 0 3.146.925 3.146 2.16v.122z" fill="#000"/></svg>
